X:21982
T:Va ben-seyr ayns y gharey 
T:There was a lady in the garden (revised)
C:Traditional
O:Isle of Man
Z:Manx National Music
B:Kiaull Vannin #198 (revised; re-barred and time signature changed as in Manx National Music.) 
M:3/4 
L:1/8 
K:D 
A d>e|dA dB A>F|D3 FGA | BG FE F^G|A3A FA | 
(g!3!eg) fe dB| A3 G FA | ge fd (A!3!Bc)|d2 F2F2|| 

